app/dist/common/images/generation-asia-i-acquisition-limited.svg

<svg height="18" viewBox="0 0 18 18" width="18" xmlns="http://www.w3.org/2000/svg"><path d="m0 0h18v18h-18z" fill="#f0f3fa"/><path d="m11.89 6-2.46 6h.81l.57-1.5h2.15l.57 1.5h1.47l-2.4-6zm.88 4h-1.77l.88-2.3.88 2.3zm-4.14-2.52.37-.96a4.89 4.89 0 0 0 -2.4-.52c-1.61 0-3.6.86-3.6 3.28s3 2.72 3.7 2.72c.57 0 1.77-.24 2.3-.35v-2.65h-1.4v2.32l-.02.01c-.14.07-.37.2-.88.2-.67 0-2.22-.65-2.22-2.42 0-1.78 1.3-2.6 2.22-2.6.93 0 1.56.32 1.93.97z" fill="#415e74"/></svg>

<!-- by TradingView --><svg width="18" height="18" viewBox="0 0 18 18" xmlns="http://www.w3.org/2000/svg"><path fill="#F0F3FA" d="M0 0h18v18H0z"/><path d="m11.89 6-2.46 6h.81l.57-1.5h2.15l.57 1.5H15l-2.4-6h-.71Zm.88 4H11l.88-2.3.88 2.3ZM8.63 7.48 9 6.52A4.89 4.89 0 0 0 6.6 6C4.99 6 3 6.86 3 9.28S6 12 6.7 12c.57 0 1.77-.24 2.3-.35V9H7.6v2.32l-.02.01c-.14.07-.37.2-.88.2-.67 0-2.22-.65-2.22-2.42 0-1.78 1.3-2.6 2.22-2.6.93 0 1.56.32 1.93.97Z" fill="#415E74"/></svg>
